X: 16571
T: Hamnataing
R: hornpipe
M: 4/4
K: Dmajor
|:FGFE D3F|G2FG AFDE|F3G AFDF|GAFD E2FG|
ABAG FEFA|GAFG A2 AG|FGFD E2FG|1 AFEF DA,DE:|2 AFEF D3c||
|:dcBA F3A|BABc BAFA|B3c d2de|dcBA B2Bc|
dcBA F3A|BABc BAFD|E3F GAFD|1 EDDC D3c:|2 EDDC D3C||
|:D3F E3F|DEFd B2 AG|F3G AFDF|GAFD E2FG|
A3F E3F|DEFd B2 AF|E3F GAFD|1 EDDC D3C:|2 EDDC D3c||
|:dcBA F3A|BABc BAFA|B3c d2de|dcBA B2Bc|
dcBA F3A|B2Bc BAFD|E3F GAFD|1 EDDC D3c:|2 EDDC D3E||

